assets/icons/icon_power_v2.svg

<svg width="30" height="30" viewBox="0 0 30 30" fill="none" xmlns="http://www.w3.org/2000/svg">
<path d="M18.9349 3.80597L7.83582 16.6318C7.83582 16.6318 12.8332 17.1294 12.9831 17.3184C13.133 17.5075 11.7487 26.194 11.7487 26.194L22.3881 13.5373C22.3881 13.5373 17.9604 12.9104 17.5556 12.5672C17.1509 12.2239 18.9349 3.80597 18.9349 3.80597ZM16.6961 8.37313C15.8865 12.8507 16.1964 13.1244 16.6961 13.5473C16.916 13.7413 17.2308 14.0099 19.8994 14.4677L13.7477 21.796C14.4673 17.0647 14.3573 16.9353 13.9775 16.4876C13.6627 16.1144 13.5378 15.99 10.4344 15.6119L16.6961 8.37313Z" fill="white"/>
</svg>

<svg xmlns="http://www.w3.org/2000/svg" width="30" height="30" fill="none" viewBox="0 0 30 30"><path fill="#fff" d="m18.935 3.806-11.1 12.826s4.998.497 5.148.686-1.234 8.876-1.234 8.876l10.64-12.657s-4.429-.627-4.833-.97c-.405-.343 1.379-8.761 1.379-8.761m-2.239 4.567c-.81 4.478-.5 4.751 0 5.174.22.194.535.463 3.203.92l-6.151 7.329c.72-4.731.61-4.86.23-5.308-.315-.374-.44-.498-3.544-.876z"/></svg>
